packages/icons/src/assets/ordered-list.svg

<svg width="16" height="16" viewBox="0 0 16 16" fill="none" xmlns="http://www.w3.org/2000/svg"><path d="M14.9033 3.30999H4.9033V4.56999H14.9033V3.30999Z" fill="currentColor"/><path d="M14.9033 7.59999H4.9033V8.85999H14.9033V7.59999Z" fill="currentColor"/><path d="M14.9033 11.95H4.9033V13.21H14.9033V11.95Z" fill="currentColor"/><path d="M2.3033 5.06999H2.7933V2.79999H1.9133V3.24999H2.3033V5.06999Z" fill="currentColor"/><path d="M3.1733 8.94999H2.2233L2.3633 8.83999L2.6633 8.59999C3.0133 8.31999 3.1533 8.09999 3.1533 7.80999C3.15284 7.70463 3.1299 7.60059 3.08599 7.50482C3.04209 7.40905 2.97824 7.32376 2.89872 7.25465C2.81919 7.18554 2.72583 7.13421 2.62487 7.10409C2.52392 7.07397 2.41769 7.06575 2.3133 7.07999C2.2027 7.07376 2.09206 7.09146 1.98893 7.1319C1.8858 7.17233 1.79261 7.23454 1.71572 7.31428C1.63883 7.39402 1.58005 7.48942 1.54339 7.59395C1.50673 7.69848 1.49306 7.80969 1.5033 7.91999H2.0233C2.01623 7.87527 2.01816 7.8296 2.02898 7.78564C2.03979 7.74169 2.05928 7.70033 2.08629 7.66401C2.1133 7.62768 2.1473 7.59711 2.18628 7.5741C2.22526 7.55109 2.26845 7.53609 2.3133 7.52999C2.39552 7.52999 2.47437 7.56265 2.5325 7.62078C2.59064 7.67892 2.6233 7.75777 2.6233 7.83999C2.6198 7.92471 2.59839 8.00773 2.56047 8.08357C2.52255 8.15941 2.46898 8.22636 2.4033 8.27999L1.5333 9.02999V9.41999H3.1733V8.94999Z" fill="currentColor"/><path d="M2.8133 12.51C2.90059 12.4647 2.97323 12.3955 3.0228 12.3105C3.07236 12.2256 3.09681 12.1283 3.0933 12.03C3.08759 11.9362 3.06222 11.8447 3.01883 11.7613C2.97544 11.678 2.915 11.6047 2.84144 11.5462C2.76788 11.4877 2.68285 11.4454 2.59186 11.4219C2.50087 11.3985 2.40596 11.3944 2.3133 11.41C2.21168 11.4012 2.10936 11.4144 2.0133 11.4487C1.91723 11.483 1.82969 11.5376 1.75662 11.6087C1.68355 11.6799 1.62668 11.766 1.58987 11.8611C1.55306 11.9562 1.53717 12.0582 1.5433 12.16H2.0433C2.03771 12.082 2.06281 12.0049 2.11325 11.9451C2.16368 11.8853 2.23546 11.8476 2.3133 11.84C2.35101 11.8325 2.38991 11.8334 2.4272 11.8428C2.4645 11.8521 2.49926 11.8696 2.52898 11.894C2.5587 11.9184 2.58264 11.9491 2.59908 11.9838C2.61552 12.0186 2.62405 12.0565 2.62405 12.095C2.62405 12.1334 2.61552 12.1714 2.59908 12.2062C2.58264 12.2409 2.5587 12.2716 2.52898 12.296C2.49926 12.3204 2.4645 12.3379 2.4272 12.3472C2.38991 12.3565 2.35101 12.3575 2.3133 12.35H2.2233V12.73H2.3133C2.5433 12.73 2.6833 12.84 2.6833 13.02C2.6837 13.0617 2.6751 13.103 2.65809 13.141C2.64109 13.1791 2.61607 13.2131 2.58475 13.2406C2.55343 13.2681 2.51654 13.2886 2.47659 13.3005C2.43665 13.3125 2.3946 13.3157 2.3533 13.31C2.3065 13.3113 2.25991 13.3033 2.21629 13.2863C2.17266 13.2693 2.13289 13.2437 2.09932 13.2111C2.06576 13.1784 2.03908 13.1394 2.02087 13.0963C2.00266 13.0531 1.99328 13.0068 1.9933 12.96H1.5233C1.51706 13.0693 1.5345 13.1786 1.57442 13.2805C1.61435 13.3825 1.67583 13.4746 1.75464 13.5505C1.83346 13.6265 1.92775 13.6845 2.03108 13.7207C2.1344 13.7568 2.24432 13.7702 2.3533 13.76C2.4561 13.7726 2.5604 13.7635 2.65945 13.7333C2.75851 13.703 2.85011 13.6524 2.92835 13.5845C3.00658 13.5166 3.0697 13.4331 3.11361 13.3393C3.15753 13.2455 3.18127 13.1435 3.1833 13.04C3.18872 12.9232 3.15537 12.8079 3.08845 12.7121C3.02153 12.6162 2.92479 12.5452 2.8133 12.51Z" fill="currentColor"/></svg>

<svg xmlns="http://www.w3.org/2000/svg" width="16" height="16" viewBox="0 0 16 16"><path d="M14.903 3.31h-10v1.26h10zm0 4.29h-10v1.26h10zm0 4.35h-10v1.26h10zm-12.6-6.88h.49V2.8h-.88v.45h.39zm.87 3.88h-.95l.14-.11.3-.24c.35-.28.49-.5.49-.79a.74.74 0 0 0-.84-.73.77.77 0 0 0-.81.84h.52a.34.34 0 0 1 .29-.39.31.31 0 0 1 .31.31.6.6 0 0 1-.22.44l-.87.75v.39h1.64zm-.36 3.56a.52.52 0 0 0 .28-.48.67.67 0 0 0-.78-.62.71.71 0 0 0-.77.75h.5a.3.3 0 0 1 .27-.32.26.26 0 0 1 .286.366.26.26 0 0 1-.286.144h-.09v.38h.09c.23 0 .37.11.37.29a.29.29 0 0 1-.33.29.35.35 0 0 1-.36-.35h-.47a.76.76 0 0 0 .83.8.74.74 0 0 0 .83-.72.53.53 0 0 0-.37-.53"/></svg>
